X: 40042
T: Through The Gates
R: barndance
M: 4/4
K: Dmajor
DE|E(F F)(F F) E DB,|A,B,DE F2A2|B(d d)(d d)B AF|AFEF E2 DE|
(F2 F)(F F) E DB,|A,B,DE F2A2|B(d d)(d d)B AF|AFEF D2:|
A2|:(B/c/d) d(d d)d (B/c/d)|ddBd efed|(B/c/d) d(d d)d (B/c/d)|dBAB AFED|
(B/c/d) d(d d)d (B/c/d)|ddBd efaf|edBd AFAB|dABd A2:|

